Origami/24x24/apps/pdfchain.svg

<svg width="24" height="24" version="1" xmlns="http://www.w3.org/2000/svg">
 <rect transform="matrix(0,-1,-1,0,0,0)" x="-16.5" y="-16" width="14" height="14" rx="2" ry="2" style="opacity:.2"/>
 <rect transform="matrix(0,-1,-1,0,0,0)" x="-16" y="-16" width="14" height="14" rx="2" ry="2" style="fill:#2e72be"/>
 <rect transform="matrix(0,-1,-1,0,0,0)" x="-19.5" y="-19" width="14" height="14" rx="2" ry="2" style="opacity:.2"/>
 <rect transform="matrix(0,-1,-1,0,0,0)" x="-19" y="-19" width="14" height="14" rx="2" ry="2" style="fill:#459df7"/>
 <rect transform="matrix(0,-1,-1,0,0,0)" x="-22.5" y="-22" width="14" height="14" rx="2" ry="2" style="opacity:.2"/>
 <rect transform="matrix(0,-1,-1,0,0,0)" x="-22" y="-22" width="14" height="14" rx="2" ry="2" style="fill:#90c2fa"/>
 <path d="m4 2c-1.108 0-2 0.892-2 2v0.5c0-1.108 0.892-2 2-2h10c1.108 0 2 0.892 2 2v-0.5c0-1.108-0.892-2-2-2h-10z" style="fill:#ffffff;opacity:.1"/>
 <path d="m7 5c-1.108 0-2 0.892-2 2v0.5c0-1.108 0.892-2 2-2h10c1.108 0 2 0.892 2 2v-0.5c0-1.108-0.892-2-2-2h-10z" style="fill:#ffffff;opacity:.1"/>
 <path d="m10 8c-1.108 0-2 0.892-2 2v0.5c0-1.108 0.892-2 2-2h10c1.108 0 2 0.892 2 2v-0.5c0-1.108-0.892-2-2-2h-10z" style="fill:#ffffff;opacity:.1"/>
 <path d="m 15.042969,14 a 3.890242,2.4730582 34.437874 0 0 -1.84082,0.947266 3.890242,2.4730582 34.437874 0 0 2.125976,4.240234 3.890242,2.4730582 34.437874 0 0 4.469726,-0.134766 A 3.890242,2.4730582 34.437874 0 0 17.671875,14.8125 3.890242,2.4730582 34.437874 0 0 15.042969,14 Z" style="fill:#f34e51"/>
 <path d="m15.713867 15.501386a2.6324099 1.8222014 25.717096 0 1 1.162109 0.1875 2.6324099 1.8222014 25.717096 0 1 2.095703 2.658202 2.6324099 1.8222014 25.717096 0 1 -2.847656 0.964844 2.6324099 1.8222014 25.717096 0 1 -2.095702 -2.658203 2.6324099 1.8222014 25.717096 0 1 1.685546 -1.152344z" style="opacity:.2"/>
 <path d="m15.713867 15.000977a2.6324099 1.8222014 25.717096 0 1 1.162109 0.1875 2.6324099 1.8222014 25.717096 0 1 2.095703 2.658202 2.6324099 1.8222014 25.717096 0 1 -2.847656 0.964844 2.6324099 1.8222014 25.717096 0 1 -2.095702 -2.658203 2.6324099 1.8222014 25.717096 0 1 1.685546 -1.152343z" style="fill:#ffffff"/>
 <path d="m10.5 12.999533 5 4" style="fill:none;opacity:.2;stroke-linecap:round;stroke-linejoin:round;stroke:#000000"/>
 <path d="m10.5 12.5 5 4" style="fill:none;stroke-linecap:round;stroke-linejoin:round;stroke:#f34e51"/>
</svg>

<svg xmlns="http://www.w3.org/2000/svg" width="24" height="24" version="1">
 <rect style="opacity:0.2" width="14" height="14" x="-16.5" y="-16" rx="2" ry="2" transform="matrix(0,-1,-1,0,0,0)"/>
 <rect style="fill:#2e72be" width="14" height="14" x="-16" y="-16" rx="2" ry="2" transform="matrix(0,-1,-1,0,0,0)"/>
 <rect style="opacity:0.2" width="14" height="14" x="-19.5" y="-19" rx="2" ry="2" transform="matrix(0,-1,-1,0,0,0)"/>
 <rect style="fill:#459df7" width="14" height="14" x="-19" y="-19" rx="2" ry="2" transform="matrix(0,-1,-1,0,0,0)"/>
 <rect style="opacity:0.2" width="14" height="14" x="-22.5" y="-22" rx="2" ry="2" transform="matrix(0,-1,-1,0,0,0)"/>
 <rect style="fill:#90c2fa" width="14" height="14" x="-22" y="-22" rx="2" ry="2" transform="matrix(0,-1,-1,0,0,0)"/>
 <path style="opacity:0.1;fill:#ffffff" d="M 4,2 C 2.892,2 2,2.892 2,4 l 0,0.5 c 0,-1.108 0.892,-2 2,-2 l 10,0 c 1.108,0 2,0.892 2,2 L 16,4 C 16,2.892 15.108,2 14,2 L 4,2 Z"/>
 <path style="opacity:0.1;fill:#ffffff" d="M 7,5 C 5.892,5 5,5.892 5,7 l 0,0.5 c 0,-1.108 0.892,-2 2,-2 l 10,0 c 1.108,0 2,0.892 2,2 L 19,7 C 19,5.892 18.108,5 17,5 L 7,5 Z"/>
 <path style="opacity:0.1;fill:#ffffff" d="M 10,8 C 8.892,8 8,8.892 8,10 l 0,0.5 c 0,-1.108 0.892,-2 2,-2 l 10,0 c 1.108,0 2,0.892 2,2 L 22,10 C 22,8.892 21.108,8 20,8 L 10,8 Z"/>
 <path style="fill:#f34e51" d="m 15.042969,14 a 3.890242,2.4730582 34.437874 0 0 -1.84082,0.947266 3.890242,2.4730582 34.437874 0 0 2.125976,4.240234 3.890242,2.4730582 34.437874 0 0 4.469726,-0.134766 A 3.890242,2.4730582 34.437874 0 0 17.671875,14.8125 3.890242,2.4730582 34.437874 0 0 15.042969,14 Z"/>
 <path style="opacity:0.2" d="m 15.713867,15.501386 a 2.6324099,1.8222014 25.717096 0 1 1.162109,0.1875 2.6324099,1.8222014 25.717096 0 1 2.095703,2.658202 2.6324099,1.8222014 25.717096 0 1 -2.847656,0.964844 2.6324099,1.8222014 25.717096 0 1 -2.095702,-2.658203 2.6324099,1.8222014 25.717096 0 1 1.685546,-1.152344 z"/>
 <path style="fill:#ffffff" d="m 15.713867,15.000977 a 2.6324099,1.8222014 25.717096 0 1 1.162109,0.1875 2.6324099,1.8222014 25.717096 0 1 2.095703,2.658202 2.6324099,1.8222014 25.717096 0 1 -2.847656,0.964844 2.6324099,1.8222014 25.717096 0 1 -2.095702,-2.658203 2.6324099,1.8222014 25.717096 0 1 1.685546,-1.152343 z"/>
 <path style="opacity:0.2;fill:none;stroke:#000000;stroke-linecap:round;stroke-linejoin:round" d="m 10.5,12.999533 5,4"/>
 <path style="fill:none;stroke:#f34e51;stroke-linecap:round;stroke-linejoin:round" d="m 10.5,12.5 5,4"/>
</svg>
